X: 13
T: 12 Weeks And A Day
R: reel
M: 4/4
K: Dmajor
|:{e}~f4 edBD|EFAB deed|ef~f2 edBf|afed dede|
{e}~f4 edBD|EFAB deed|ef~f2 edBf|afed d4:|
|:dBBA Bggf|dB~B2 gfdB|dBBA EFAB|
DEFA ~A2FA|dBBA Bggf|dB~B2 defa|
[1 bf~f2 ef~f2|edBA B3c:|2 bf~f2 e3B|EFAB deed||

